dist/assets/images/icons/ico-slide-2 2.svg

<svg width="33" height="39" viewBox="0 0 33 39" fill="none" xmlns="http://www.w3.org/2000/svg">
<path d="M31.7769 27.9069L28.1342 24.2642C27.974 24.104 27.7153 24.104 27.5552 24.2642L27.2554 24.564L24.8611 22.1697C24.8734 22.0835 24.8775 22.0054 24.8775 21.9233V13.5208C24.8775 12.4037 23.9699 11.492 22.8488 11.492C21.7276 11.492 20.82 12.3996 20.82 13.5208V18.1286L9.10329 6.41601C8.34353 5.65625 7.11149 5.65625 6.35173 6.41601C5.59197 7.17577 5.59197 8.40781 6.34763 9.16346C6.52422 9.34416 9.61664 12.5105 11.3292 14.2641C10.9185 14.3257 10.5201 14.5105 10.2039 14.8267C9.74806 15.2826 9.55914 15.9068 9.63717 16.5023C9.04169 16.4243 8.41745 16.6132 7.9616 17.0691C7.50574 17.5249 7.31683 18.1491 7.39486 18.7446C6.79937 18.6666 6.17514 18.8555 5.71929 19.3114C4.9431 20.0917 4.9431 21.3566 5.71929 22.1327L17.6988 34.1123L17.399 34.4121C17.321 34.4901 17.2799 34.5928 17.2799 34.7037C17.2799 34.8146 17.3251 34.9172 17.399 34.9952L21.0418 38.638C21.1239 38.7201 21.2307 38.8047 21.3375 38.8047C21.4442 38.8047 21.5428 38.716 21.6249 38.638L31.7728 28.4901C31.8509 28.412 31.9675 28.3094 31.9675 28.1985C31.9675 28.0876 31.8509 27.9849 31.7769 27.9069ZM6.30656 21.5537C5.8507 21.0937 5.8507 20.3504 6.30656 19.8945C6.53654 19.6646 6.83634 19.5496 7.13613 19.5496C7.43593 19.5496 7.73573 19.6646 7.96571 19.8945C8.12587 20.0547 8.3846 20.0547 8.54477 19.8945C8.6269 19.8124 8.66386 19.7097 8.66386 19.603C8.66386 19.4962 8.62279 19.3935 8.54477 19.3114C8.0848 18.8514 8.0848 18.1081 8.54477 17.6522C9.00473 17.1964 9.74806 17.1923 10.2039 17.6522C10.3641 17.8124 10.6228 17.8124 10.783 17.6522C10.8651 17.5701 10.9021 17.4674 10.9021 17.3606C10.9021 17.2539 10.861 17.1512 10.783 17.0691C10.323 16.6091 10.323 15.8658 10.783 15.4099C11.2429 14.9541 11.9863 14.9541 12.4421 15.4099C12.6023 15.5701 12.861 15.5701 13.0212 15.4099C13.1813 15.2497 13.1813 14.991 13.0212 14.8308C12.8692 14.6789 6.98829 8.65422 6.92669 8.58851C6.48726 8.14908 6.48726 7.4386 6.92669 6.99918C7.36611 6.55975 8.07659 6.55975 8.51602 6.99918L20.9309 19.414C21.05 19.5331 21.2225 19.566 21.3785 19.5044C21.5305 19.4428 21.6331 19.2908 21.6331 19.1266V13.5208C21.6331 12.8555 22.1752 12.3134 22.8405 12.3134C23.5058 12.3134 24.0479 12.8555 24.0479 13.5208V21.9192C24.0479 22.0054 24.0356 22.0958 24.0069 22.2026C23.974 22.3422 24.0151 22.49 24.1137 22.5927L26.664 25.143L18.282 33.5332L6.30656 21.5537ZM21.3375 37.7673L18.2738 34.7037L27.8426 25.1348L30.9063 28.1985L21.3375 37.7673Z" fill="#DF0112" stroke="#DF0112" stroke-width="0.3"/>
<path fill-rule="evenodd" clip-rule="evenodd" d="M8.35547 13.7825V14.6084C8.17623 14.6223 7.99794 14.6283 7.8214 14.6264C6.02673 14.6264 4.28544 13.92 2.99591 12.6305C1.71048 11.345 1 9.6325 1 7.81318C1 5.99387 1.71048 4.28133 2.99591 2.99591C4.28134 1.71048 5.99387 1 7.81319 1C9.6325 1 11.345 1.71048 12.6305 2.99591C14.1621 4.53155 14.8713 6.70862 14.5462 8.84916L13.7357 8.71408C14.0188 6.83352 13.3921 4.91976 12.0473 3.57497C10.9138 2.44559 9.41073 1.82136 7.80908 1.82136C6.20742 1.82136 4.70434 2.44149 3.57086 3.57497C2.44149 4.70844 1.81725 6.21153 1.81725 7.81318C1.81725 9.41484 2.43738 10.9179 3.57086 12.0514C4.83121 13.3155 6.59132 13.942 8.35547 13.7825Z" fill="#0000FF"/>
<path d="M8.35547 14.6084L8.36706 14.7579L8.50547 14.7472V14.6084H8.35547ZM8.35547 13.7825H8.50547V13.6183L8.34196 13.6331L8.35547 13.7825ZM7.8214 14.6264L7.82301 14.4764H7.8214V14.6264ZM2.99591 12.6305L3.10197 12.5244L2.99591 12.6305ZM2.99591 2.99591L3.10197 3.10197L2.99591 2.99591ZM12.6305 2.99591L12.7367 2.88998L12.7365 2.88984L12.6305 2.99591ZM14.5462 8.84916L14.5215 8.99712L14.6717 9.02214L14.6945 8.87169L14.5462 8.84916ZM13.7357 8.71408L13.5874 8.69174L13.5654 8.83776L13.711 8.86204L13.7357 8.71408ZM12.0473 3.57497L12.1534 3.4689L12.1532 3.46871L12.0473 3.57497ZM3.57086 3.57497L3.46479 3.4689L3.4646 3.46909L3.57086 3.57497ZM3.57086 12.0514L3.67708 11.9455L3.67692 11.9453L3.57086 12.0514ZM8.50547 14.6084V13.7825H8.20547V14.6084H8.50547ZM8.34387 14.4588C8.16896 14.4724 7.99507 14.4782 7.82301 14.4764L7.81979 14.7764C8.0008 14.7783 8.1835 14.7722 8.36706 14.7579L8.34387 14.4588ZM7.8214 14.4764C6.06601 14.4764 4.36302 13.7854 3.10197 12.5244L2.88984 12.7365C4.20786 14.0545 5.98745 14.7764 7.8214 14.7764V14.4764ZM3.10197 12.5244C1.84464 11.2671 1.15 9.59267 1.15 7.81318H0.85C0.85 9.67233 1.57631 11.423 2.88984 12.7365L3.10197 12.5244ZM1.15 7.81318C1.15 6.0337 1.84464 4.3593 3.10197 3.10197L2.88984 2.88984C1.57631 4.20337 0.85 5.95404 0.85 7.81318H1.15ZM3.10197 3.10197C4.3593 1.84464 6.0337 1.15 7.81319 1.15V0.85C5.95404 0.85 4.20337 1.57631 2.88984 2.88984L3.10197 3.10197ZM7.81319 1.15C9.59267 1.15 11.2671 1.84464 12.5244 3.10197L12.7365 2.88984C11.423 1.57631 9.67233 0.85 7.81319 0.85V1.15ZM12.5243 3.10183C14.0221 4.60365 14.7159 6.733 14.3979 8.82664L14.6945 8.87169C15.0267 6.68424 14.302 4.45946 12.7367 2.88998L12.5243 3.10183ZM14.5709 8.7012L13.7603 8.56612L13.711 8.86204L14.5215 8.99712L14.5709 8.7012ZM13.884 8.73641C14.1742 6.80896 13.532 4.84749 12.1534 3.4689L11.9412 3.68103C13.2522 4.99203 13.8634 6.85809 13.5874 8.69174L13.884 8.73641ZM12.1532 3.46871C10.9917 2.31146 9.45061 1.67136 7.80908 1.67136V1.97136C9.37086 1.97136 10.8359 2.57973 11.9414 3.68122L12.1532 3.46871ZM7.80908 1.67136C6.16778 1.67136 4.6265 2.30719 3.46479 3.4689L3.67692 3.68103C4.78217 2.57578 6.24707 1.97136 7.80908 1.97136V1.67136ZM3.4646 3.46909C2.30735 4.63055 1.66725 6.17166 1.66725 7.81318H1.96725C1.96725 6.25141 2.57563 4.78633 3.67712 3.68084L3.4646 3.46909ZM1.66725 7.81318C1.66725 9.45448 2.30308 10.9958 3.46479 12.1575L3.67692 11.9453C2.57168 10.8401 1.96725 9.3752 1.96725 7.81318H1.66725ZM3.46463 12.1573C4.75686 13.4534 6.56101 14.0954 8.36898 13.9319L8.34196 13.6331C6.62163 13.7887 4.90556 13.1776 3.67708 11.9455L3.46463 12.1573Z" fill="#0000FF"/>
</svg>

<svg width="33" height="39" fill="none" xmlns="http://www.w3.org/2000/svg"><path d="M31.777 27.907l-3.643-3.643a.409.409 0 00-.579 0l-.3.3-2.394-2.394c.012-.087.017-.165.017-.247v-8.402a2.028 2.028 0 10-4.058 0v4.608L9.103 6.416a1.946 1.946 0 00-2.755 2.747l4.981 5.101a1.997 1.997 0 00-1.692 2.238 1.997 1.997 0 00-2.242 2.243 1.997 1.997 0 00-1.676.566 2 2 0 000 2.822l11.98 11.98-.3.3a.407.407 0 00-.12.29c0 .112.046.214.12.292l3.643 3.643c.082.082.189.167.295.167.107 0 .206-.089.288-.167L31.773 28.49c.078-.078.195-.18.195-.291 0-.111-.117-.214-.191-.292zm-25.47-6.353a1.177 1.177 0 010-1.66 1.17 1.17 0 011.659 0 .409.409 0 00.698-.291.42.42 0 00-.12-.292 1.174 1.174 0 011.66-1.66.409.409 0 00.698-.29.42.42 0 00-.119-.292 1.17 1.17 0 010-1.66 1.177 1.177 0 011.66 0 .409.409 0 10.578-.578c-.152-.152-6.033-6.177-6.094-6.242a1.123 1.123 0 111.589-1.59l12.415 12.415a.411.411 0 00.702-.287V13.52a1.21 1.21 0 011.207-1.208 1.21 1.21 0 011.208 1.208v8.398c0 .086-.012.177-.041.284a.425.425 0 00.107.39l2.55 2.55-8.382 8.39-11.975-11.98zm15.03 16.213l-3.063-3.063 9.569-9.57 3.063 3.064-9.569 9.57z" fill="#DF0112" stroke="#DF0112" stroke-width=".3"/><path fill-rule="evenodd" clip-rule="evenodd" d="M8.355 13.783v.825c-.179.014-.357.02-.534.018a6.824 6.824 0 01-4.825-1.995A6.773 6.773 0 011 7.813c0-1.82.71-3.532 1.996-4.817A6.772 6.772 0 017.813 1c1.82 0 3.532.71 4.817 1.996a6.84 6.84 0 011.916 5.853l-.81-.135a6.013 6.013 0 00-1.689-5.139A5.965 5.965 0 007.81 1.821c-1.602 0-3.105.62-4.238 1.754a5.965 5.965 0 00-1.754 4.238c0 1.602.62 3.105 1.754 4.238a5.998 5.998 0 004.784 1.732z" fill="#00F"/><path d="M8.355 14.608l.012.15.138-.01v-.14h-.15zm0-.825h.15v-.165l-.163.015.013.15zm-.534.843l.002-.15h-.002v.15zm-4.825-1.995l.106-.107-.106.107zm0-9.635l.106.106-.106-.106zm9.634 0l.107-.106-.107.106zm1.916 5.853l-.024.148.15.025.022-.15-.148-.023zm-.81-.135l-.149-.022-.022.146.146.024.025-.148zm-1.689-5.139l.106-.106-.106.106zm-8.476 0l-.106-.106.106.106zm0 8.476l.106-.106-.106.106zm4.934 2.557v-.825h-.3v.825h.3zm-.161-.15c-.175.014-.349.02-.521.018l-.003.3a6.21 6.21 0 00.547-.018l-.023-.3zm-.523.018a6.674 6.674 0 01-4.719-1.952l-.212.213a6.974 6.974 0 004.931 2.04v-.3zm-4.719-1.952a6.622 6.622 0 01-1.952-4.71h-.3c0 1.858.726 3.609 2.04 4.922l.212-.212zM1.15 7.814c0-1.78.695-3.455 1.952-4.712L2.89 2.89A6.922 6.922 0 00.85 7.813h.3zm1.952-4.712A6.622 6.622 0 017.813 1.15v-.3A6.92 6.92 0 002.89 2.89l.212.212zM7.813 1.15c1.78 0 3.454.695 4.711 1.952l.213-.212A6.922 6.922 0 007.812.85v.3zm4.711 1.952a6.691 6.691 0 011.874 5.725l.296.045a6.991 6.991 0 00-1.957-5.982l-.213.212zm2.047 5.6l-.81-.136-.05.296.81.135.05-.296zm-.687.034a6.162 6.162 0 00-1.73-5.267l-.213.212a5.863 5.863 0 011.646 5.01l.297.045zm-1.73-5.267A6.115 6.115 0 007.808 1.67v.3c1.562 0 3.027.609 4.132 1.71l.212-.212zM7.808 1.67a6.098 6.098 0 00-4.343 1.8l.212.212a5.798 5.798 0 014.132-1.71v-.3zm-4.343 1.8a6.115 6.115 0 00-1.798 4.344h.3c0-1.562.609-3.027 1.71-4.132l-.212-.212zM1.667 7.813a6.1 6.1 0 001.798 4.345l.212-.213a5.798 5.798 0 01-1.71-4.132h-.3zm1.798 4.344a6.148 6.148 0 004.904 1.775l-.027-.299a5.848 5.848 0 01-4.665-1.688l-.212.212z" fill="#00F"/></svg>
